X: 39131
T: Sweet Hesleyside
R: waltz
M: 3/4
K: Dmajor
A2|"D" d4 A2|F3 E D2|"G"c4 B2|G4 FG|
"D"A3 ^G A2|"A"B A3 G2|"D"F6-|"A"F4 Ac|
"D" d4 A2|F3 E D2|"G"c4 B2|G4 FG|
"D" A3 ^G A2|"A"B A3 C2|"D"D6-|D4 EF|
"G"G4 G2|"D"F4 F2|"A"E3 F GE|"D"F4 F2|
"E"E4 E2|F4 ^G2|"A"A6-|A2 B2 c2|
"D"d4 A2|F3 E D2|"G"c4 B2|G4 FG|
"D" A3 ^G A2|"A"c3 B c2|"D"d6-|d4 A2|

